X: 4128
T: STEER KIMMER
R: Reel.
%R: reel
B: James Kerr "Merry Melodies" v.4 p.16 #128
Z: 2016 John Chambers <jc:trillian.mit.edu>
M: C|
L: 1/8
K: G
|:\
B/B/B (BA) B2(Bd) | B/B/B (BA) B2(Bc) |\
dedB e2(dB) | dedB AcBA ::\
G/G/G (GE) G2(GB) | G/G/G (GE) G2(GA) |\
Bdef gfge |[1 dBGB AcBA :|[2 dBAB G2d2 |]

%%sep 1 1 500
%%sep 1 1 500

